X:1
T: Teddy Bear's Picnic
C:
R:Jig
Q:180
K:C
M:6/8
L:1/16
B2|A4c2 B2B2c2|A4c2 B4c2|A2B2c2 B4c2|A6-A4G2|c4e2 d2d2e2|c4e2 d4e2|c2d2e2 d4e2|c6-c4g2|
a4g2 a4g2|d2e2g2 e4d2|d4c2 d4c2|A2B2c2 G4G2|A4c2 G4c2|A2B2c2 G2G2e2|d12c6-c4B2|
A4c2 B2B2c2|A4c2 B4c2|A2B2c2 B4c2|A6-A4G2|c4e2 d2d2e2|c4e2 d4e2|c2d2e2 d4e2|c6-c4g2|
a4g2 a4g2|d2e2g2 e4d2|d4c2 d4c2|A2B2c2 G4G2|A4c2 G4c2|A2B2c2 G2G2e2|d12c6-c4||
